!!!OTL: Die Mordeltern.
!!!OTL-incipit: Es war'n einmal zwei Bauernsoehn',
!!!ARE: Europa, Mitteleuropa, Deutschland (BRD), Westfalen
!!!YOR: 4, S. 310
!!    1920 gedruckt (1919/20)
!!!SCT: Q0085Y
!!!TXL: @@DE
!!!YEM: Copyright 1995, estate of Helmut Schaffrath.
**kern	**text
*ICvox	*
*M3/4	*
*k[f#]	*
*G:	*
!LO:TX:a:t=28 Weiſfalen	!
{4d	Es
=1	=1
8g	war'n
8d	ein-
4d	-mal
4g	ʒwei
=2	=2
8e	Bau-
8e	-ern-
4.e}	-ſöhn',
{8g	die
=3	=3
8f#	hat-
8g	-ten
4a	Luſt
8aL	ins
8gJ	.
=4	=4
8f#	Feld
8e	ʒu
8.dL	ʒiehn,
16e	.
8dJ}	.
{8c	um
=5	=5
8B	ein
8d	Sol-
4d	-dat
4d	ʒu
=6	=6
8dL	wer-
8gJ	.
4.g}	-den,
{8g	um
=7	=7
8g	ein
8a	Sol-
4b	-dat
4b	ʒu
=8	=8
8aL	wer-
8f#J	.
4g}	-den.
==	==
!!!AGN: Ballade, Habgier, Mord, Reue, Selbstmord
!!!ONB: ESAC (Essen Associative Code) Database: BALLADE
!!!AMT: simple triple
!!!AIN: vox
!!!EED: Helmut Schaffrath
!!!EEV: 1.0
!!!source: Deutsche Volkslieder mit ihren Melodien. Herausgegeben vom Deutschen Volksliedarchiv. Vierter Band. Berlin 1959.
!!!page: 310
!!!ENC: Anna Maria Matuszewska
!!!EEV: 2025/02/26
*-	*-
